assets/img/services-list-item-2.svg

<svg xmlns="http://www.w3.org/2000/svg" width="22" height="32"><path fill-rule="evenodd" fill="#666D89" d="M16.969 23.078C14.965 28.666 15.25 32 11 32c-4.187 0-3.966-3.349-5.969-8.945C3.689 19.303 0 15.031 0 11 0 4.925 4.925 0 11 0s11 4.925 11 11c0 4-3.684 8.319-5.031 12.078zM11 30c1.181 0 1.628-.127 2.241-1.78l-4.238.53C9.521 29.884 9.987 30 11 30zm-2.964-4.097c.231.781.421 1.38.598 1.893l4.959-.62c.11-.355.228-.745.359-1.194.081-.278.176-.588.264-.884l-6.189.773.009.032zm-.3-.995l6.799-.849c.107-.34.23-.699.352-1.059H7.121c.229.672.434 1.307.615 1.908zM11 2c-4.963 0-9 4.037-9 9 0 2.033 1.349 4.448 2.653 6.783.59 1.057 1.188 2.138 1.686 3.217h9.333c.495-1.074 1.088-2.151 1.673-3.205C18.65 15.446 20 13.018 20 11c0-4.963-4.037-9-9-9zm0 4c-2.757 0-5 2.243-5 5a.5.5 0 01-1 0c0-3.309 2.691-6 6-6a.5.5 0 010 1z"/></svg>

<svg 
 xmlns="http://www.w3.org/2000/svg"
 xmlns:xlink="http://www.w3.org/1999/xlink"
 width="22px" height="32px">
<path fill-rule="evenodd"  fill="rgb(102, 109, 137)"
 d="M16.969,23.078 C14.965,28.666 15.250,32.000 11.000,32.000 C6.813,32.000 7.034,28.651 5.031,23.055 C3.689,19.303 -0.000,15.031 -0.000,11.000 C-0.000,4.925 4.925,0.000 11.000,0.000 C17.075,0.000 22.000,4.925 22.000,11.000 C22.000,15.000 18.316,19.319 16.969,23.078 ZM11.000,30.000 C12.181,30.000 12.628,29.873 13.241,28.220 L9.003,28.750 C9.521,29.884 9.987,30.000 11.000,30.000 ZM8.036,25.903 C8.267,26.684 8.457,27.283 8.634,27.796 L13.593,27.176 C13.703,26.821 13.821,26.431 13.952,25.982 C14.033,25.704 14.128,25.394 14.216,25.098 L8.027,25.871 C8.029,25.881 8.033,25.893 8.036,25.903 ZM7.736,24.908 L14.535,24.059 C14.642,23.719 14.765,23.360 14.887,23.000 L7.121,23.000 C7.350,23.672 7.555,24.307 7.736,24.908 ZM11.000,2.000 C6.037,2.000 2.000,6.037 2.000,11.000 C2.000,13.033 3.349,15.448 4.653,17.783 C5.243,18.840 5.841,19.921 6.339,21.000 L15.672,21.000 C16.167,19.926 16.760,18.849 17.345,17.795 C18.650,15.446 20.000,13.018 20.000,11.000 C20.000,6.037 15.963,2.000 11.000,2.000 ZM11.000,6.000 C8.243,6.000 6.000,8.243 6.000,11.000 C6.000,11.276 5.776,11.500 5.500,11.500 C5.224,11.500 5.000,11.276 5.000,11.000 C5.000,7.691 7.691,5.000 11.000,5.000 C11.276,5.000 11.500,5.224 11.500,5.500 C11.500,5.777 11.276,6.000 11.000,6.000 Z"/>
</svg>
